X:5102
T:Phroinsias Ui Mhaonaigh's Mazurka #2
O:england
M:3/4
L:1/8
S:Mairead Ni Mhaonaigh & Frankie Kennedy
D:Ceol Aduaidh
K:G
GA|B2BAGE|DB, D2B,D|EC E2CE|DB, D2GA|B2BAGE|\
DB, D2B,D|E2F2D2|G4::GA|B2B2dB|cB c2AF|A2A2dc|\
BA B2GA|B2B2dB|cB c2DF|A2AcBA|G4:|


